X: 1
T: Earl of Morton's Jig
C: William Gow
R: jig
Z: 2005 John Chambers <jc:trillian.mit.edu>
M: 6/8
L: 1/8
K: C
F \
| "C"E{F}GG cdc | "G7"BAB "C"cGE | "Dm"FdF "C"EcE | "G7"dDD D2F \
| "C"E{F}GG cdc | "G7"~B3 "C"cGE | "Dm"~F3 "G7"DGF | "C"ECC C2 :|
f \
| "C"ecc gcc | "F"acc "C"gcc | "C"ecc gcc | "G7"fdd d2f \
| "C"ecc gcc | "F"acc "C"gcc | "G7"fef dgf | "C"ecc c2 |]
f \
| "C"ecc gcc | "F"acc "C"gcc | "C"ecc gcc | "G7"fdd d2F \
| "C"E{F}GG cdc | "G7"~B3 "C"cGE | "Dm"FEF "G7"DGF | "C"ECC C2 :|
